modules/zondicons/icons/user-group.svg

<svg width="20" height="20" viewBox="0 0 20 20" xmlns="http://www.w3.org/2000/svg"><g fill="none" fill-rule="evenodd"><path d="M7 8a4 4 0 1 0 0-8 4 4 0 0 0 0 8zm0 1a17.93 17.93 0 0 0-6.109 1.086L2 16h1.25L4 20h6l.75-4H12l1.109-5.914A17.93 17.93 0 0 0 7 9zm8.315.171L13.66 18h-1.25l-.375 2H16l.75-4H18l1.109-5.914a18.211 18.211 0 0 0-3.794-.915zM13 0a3.99 3.99 0 0 0-1.329.243A5.964 5.964 0 0 1 13 4a5.964 5.964 0 0 1-1.329 3.757c.418.147.86.243 1.329.243a4 4 0 0 0 0-8z" fill="#000"/></g></svg>

<?xml version="1.0" encoding="UTF-8" standalone="no"?>
<svg width="20px" height="20px" viewBox="0 0 20 20" version="1.1" xmlns="http://www.w3.org/2000/svg" xmlns:xlink="http://www.w3.org/1999/xlink">
    <!-- Generator: Sketch 3.7.2 (28276) - http://www.bohemiancoding.com/sketch -->
    <title>user-group</title>
    <desc>Created with Sketch.</desc>
    <defs></defs>
    <g id="Page-1" stroke="none" stroke-width="1" fill="none" fill-rule="evenodd">
        <g id="user-group">
            <g id="Group"></g>
            <path d="M7,8 C9.209139,8 11,6.209139 11,4 C11,1.790861 9.209139,0 7,0 C4.790861,0 3,1.790861 3,4 C3,6.209139 4.790861,8 7,8 Z M7,9 C4.852,9 2.801,9.396 0.891,10.086 L2,16 L3.25,16 L4,20 L10,20 L10.75,16 L12,16 L13.109,10.086 C11.199,9.396 9.148,9 7,9 Z M15.315,9.171 L13.66,18 L12.41,18 L12.035,20 L16,20 L16.75,16 L18,16 L19.109,10.086 C17.899,9.648 16.627,9.346 15.315,9.171 Z M13,0 C12.532,0 12.089,0.096 11.671,0.243 C12.501,1.272 13,2.578 13,4 C13,5.422 12.501,6.728 11.671,7.757 C12.089,7.904 12.531,8 13,8 C15.209,8 17,6.209 17,4 C17,1.791 15.209,0 13,0 Z" id="Combined-Shape" fill="#000000"></path>
        </g>
    </g>
</svg>
